.icons/Gruvbox-Plus-Dark/apps/scalable/doom.svg

<svg xmlns="http://www.w3.org/2000/svg" style="isolation:isolate" width="256" height="256" viewBox="0 0 256 256">
 <g filter="url(#XMxehi6Q9S5O61tcBPdIsMMB0XQAFRx7)">
  <linearGradient id="_lgradient_13" x1="0" x2="0" y1="0" y2="1" gradientTransform="matrix(244.648309,0,0,228.338396,5.68,11.95)" gradientUnits="userSpaceOnUse">
   <stop offset="0%" style="stop-color:#504945"/>
   <stop offset="100%" style="stop-color:#3c3836"/>
  </linearGradient>
  <path fill="url(#_lgradient_13)" d="M 165.688919 11.95 C 239.744626 11.95 250.328309 22.507198 250.328309 96.493859 L 250.328309 155.744653 C 250.328309 229.73091 239.744626 240.288396 165.688919 240.288396 L 90.319393 240.288396 C 16.26369 240.288396 5.68 229.73091 5.68 155.744653 L 5.68 96.493859 C 5.68 22.507198 16.26369 11.95 90.319393 11.95 L 165.688919 11.95 Z"/>
 </g>
 <g opacity=".4">
  <linearGradient id="_lgradient_14" x1=".517" x2=".517" y1="0" y2="1" gradientTransform="matrix(244.65,0,0,228.34,5.68,11.95)" gradientUnits="userSpaceOnUse">
   <stop offset="0%" style="stop-color:#ebdbb2"/>
   <stop offset="12.5%" stop-opacity=".098" style="stop-color:#ebdbb2"/>
   <stop offset="92.5%" stop-opacity=".098" style="stop-color:#282828"/>
   <stop offset="100%" stop-opacity=".498" style="stop-color:#282828"/>
  </linearGradient>
  <path fill="url(#_lgradient_14)" fill-rule="evenodd" d="M 165.06803 11.951234 C 169.395994 11.941409 173.723944 11.990533 178.051908 12.088781 C 181.927398 12.167379 185.802873 12.31475 189.678362 12.540721 C 193.1309 12.737216 196.583423 13.022134 200.026115 13.395476 C 203.085193 13.729518 206.144271 14.181458 209.173842 14.741469 C 211.888645 15.242533 214.57394 15.881143 217.219897 16.6573 C 219.619947 17.354858 221.970814 18.219439 224.242988 19.241215 C 226.357793 20.184394 228.384061 21.304417 230.302129 22.591462 C 232.141505 23.829383 233.862851 25.244151 235.436659 26.80629 C 237.000621 28.378252 238.417046 30.087764 239.656409 31.924995 C 240.944972 33.840824 242.066305 35.864728 243.020409 37.967229 C 244.043389 40.246576 244.908985 42.584873 245.617197 44.972292 C 246.394255 47.615155 247.033606 50.297317 247.535265 53.008956 C 248.095924 56.034984 248.548399 59.080665 248.882828 62.13617 C 249.256611 65.574836 249.541856 69.013506 249.738578 72.462003 C 249.964823 76.323139 250.112361 80.194101 250.200884 84.055237 C 250.289421 88.378131 250.338591 92.701032 250.32876 97.014106 L 250.32876 155.225886 C 250.338591 159.54878 250.289421 163.861854 250.200884 168.184747 C 250.112361 172.05571 249.964823 175.916853 249.738578 179.777981 C 249.541856 183.226485 249.256611 186.674975 248.882828 190.103826 C 248.548399 193.15933 248.095924 196.214835 247.535265 199.240851 C 247.033606 201.942664 246.394255 204.624837 245.617197 207.267703 C 244.908985 209.655115 244.043389 212.003235 243.020409 214.272755 C 242.066305 216.38509 240.944972 218.399156 239.656409 220.314999 C 238.417046 222.152226 237.000621 223.871561 235.436659 225.433697 C 233.862851 226.995832 232.141505 228.410601 230.302129 229.648532 C 228.384061 230.935575 226.357793 232.055598 224.242988 232.998768 C 221.970814 234.020552 219.619947 234.885137 217.219897 235.592507 C 214.57394 236.368672 211.888645 237.007276 209.173842 237.498515 C 206.144271 238.068354 203.085193 238.510465 200.026115 238.844519 C 196.583423 239.21785 193.1309 239.502777 189.678362 239.699269 C 185.802873 239.925235 181.927398 240.072615 178.051908 240.161035 C 173.723944 240.249454 169.395994 240.298581 165.06803 240.288762 L 90.941963 240.288762 C 86.614006 240.298581 82.286049 240.249454 77.9581 240.161035 C 74.08261 240.072615 70.20712 239.925235 66.331638 239.699269 C 62.879108 239.502777 59.426578 239.21785 55.983886 238.844519 C 52.924808 238.510465 49.865733 238.068354 46.836162 237.498515 C 44.121356 237.007276 41.436057 236.368672 38.7901 235.592507 C 36.390053 234.885137 34.039187 234.020552 31.767009 232.998768 C 29.652213 232.055598 27.625943 230.935575 25.707871 229.648532 C 23.868489 228.410601 22.147143 226.995832 20.573343 225.433697 C 19.009377 223.871561 17.592955 222.152226 16.353586 220.314999 C 15.065036 218.399156 13.943701 216.38509 12.989584 214.272755 C 11.966612 212.003235 11.101021 209.655115 10.392811 207.267703 C 9.615746 204.624837 8.976389 201.942664 8.47474 199.240851 C 7.914072 196.214835 7.461604 193.15933 7.127172 190.103826 C 6.753394 186.674975 6.468142 183.226485 6.271417 179.777981 C 6.045183 175.916853 5.897639 172.05571 5.809112 168.184747 C 5.720586 163.861854 5.671405 159.54878 5.681241 155.225886 L 5.681241 97.014106 C 5.671405 92.701032 5.720586 88.378131 5.809112 84.055237 C 5.897639 80.194101 6.045183 76.323139 6.271417 72.462003 C 6.468142 69.013506 6.753394 65.574836 7.127172 62.13617 C 7.461604 59.080665 7.914072 56.034984 8.47474 53.008956 C 8.976389 50.297317 9.615746 47.615155 10.392811 44.972292 C 11.101021 42.584873 11.966612 40.246576 12.989584 37.967229 C 13.943701 35.864728 15.065036 33.840824 16.353586 31.924995 C 17.592955 30.087764 19.009377 28.378252 20.573343 26.80629 C 22.147143 25.244151 23.868489 23.829383 25.707871 22.591462 C 27.625943 21.304417 29.652213 20.184394 31.767009 19.241215 C 34.039187 18.219439 36.390053 17.354858 38.7901 16.6573 C 41.436057 15.881143 44.121356 15.242533 46.836162 14.741469 C 49.865733 14.181458 52.924808 13.729518 55.983886 13.395476 C 59.426578 13.022134 62.879108 12.737216 66.331638 12.540721 C 70.20712 12.31475 74.08261 12.167379 77.9581 12.088781 C 82.286049 11.990533 86.614006 11.941409 90.941963 11.951234 L 165.06803 11.951234 Z M 165.077876 15.959741 C 169.376317 15.949916 173.674759 15.99904 177.973216 16.087463 C 181.799522 16.175886 185.625827 16.323257 189.452133 16.539402 C 192.835809 16.735898 196.219486 17.010992 199.583486 17.384332 C 202.554026 17.698726 205.514751 18.131016 208.445953 18.681203 C 211.023049 19.152792 213.580483 19.761928 216.098564 20.498786 C 218.321569 21.147221 220.495374 21.952852 222.600334 22.896029 C 224.508571 23.750785 226.338116 24.762737 228.069293 25.922059 C 229.692286 27.012609 231.207063 28.260355 232.59398 29.645648 C 233.980897 31.030941 235.230091 32.543956 236.331763 34.165043 C 237.492434 35.894202 238.505568 37.711787 239.361333 39.607968 C 240.305606 41.720292 241.112187 43.891565 241.761369 46.102139 C 242.508934 48.617282 243.108947 51.161898 243.590914 53.735987 C 244.131912 56.663768 244.564709 59.6112 244.889308 62.578282 C 245.263091 65.938355 245.538505 69.308252 245.735227 72.687976 C 245.951626 76.509812 246.10901 80.321821 246.187687 84.143656 C 246.276225 88.437084 246.325394 92.720685 246.325394 97.014106 C 246.325394 97.014106 246.325394 97.014106 246.325394 97.014106 L 246.325394 155.225886 C 246.325394 155.225886 246.325394 155.225886 246.325394 155.225886 C 246.325394 159.519306 246.276225 163.802907 246.187687 168.096328 C 246.10901 171.918164 245.951626 175.739999 245.735227 179.552015 C 245.538505 182.931739 245.263091 186.301629 244.889308 189.671533 C 244.564709 192.628784 244.131912 195.576216 243.590914 198.503994 C 243.108947 201.078094 242.508934 203.622706 241.761369 206.137845 C 241.112187 208.358253 240.305606 210.5197 239.361333 212.63202 C 238.505568 214.528209 237.492434 216.355617 236.331763 218.074952 C 235.230091 219.705853 233.980897 221.218876 232.59398 222.604172 C 231.207063 223.979634 229.692286 225.227385 228.069293 226.317935 C 226.338116 227.477251 224.508571 228.489201 222.600334 229.343951 C 220.495374 230.296956 218.321569 231.092775 216.098564 231.741198 C 213.580483 232.478056 211.023049 233.087202 208.445953 233.558787 C 205.514751 234.108972 202.554026 234.541264 199.583486 234.865483 C 196.219486 235.228995 192.835809 235.513922 189.452133 235.70058 C 185.625827 235.916726 181.799522 236.073926 177.973216 236.152526 C 173.674759 236.25078 169.376317 236.290072 165.077876 236.290072 C 165.077876 236.290072 165.077876 236.290072 165.06803 236.290072 L 90.941963 236.290072 C 90.932125 236.290072 90.932125 236.290072 90.932125 236.290072 C 86.633683 236.290072 82.335234 236.25078 78.036784 236.152526 C 74.210479 236.073926 70.384173 235.916726 66.557868 235.70058 C 63.174195 235.513922 59.790522 235.228995 56.426518 234.865483 C 53.455967 234.541264 50.495253 234.108972 47.564048 233.558787 C 44.986944 233.087202 42.429517 232.478056 39.911433 231.741198 C 37.688439 231.092775 35.514626 230.296956 33.409665 229.343951 C 31.501429 228.489201 29.671886 227.477251 27.940703 226.317935 C 26.31772 225.227385 24.802935 223.979634 23.416022 222.604172 C 22.029109 221.218876 20.779904 219.705853 19.678243 218.074952 C 18.517564 216.355617 17.504428 214.528209 16.648674 212.63202 C 15.704392 210.5197 14.897819 208.358253 14.248626 206.137845 C 13.50107 203.622706 12.901057 201.078094 12.419081 198.503994 C 11.878086 195.576216 11.445291 192.628784 11.120694 189.671533 C 10.746916 186.301629 10.471501 182.931739 10.274776 179.552015 C 10.058378 175.739999 9.900997 171.918164 9.822307 168.096328 C 9.733781 163.802907 9.6846 159.519306 9.6846 155.225886 C 9.6846 155.225886 9.6846 155.225886 9.6846 155.225886 L 9.6846 97.014106 C 9.6846 97.014106 9.6846 97.014106 9.6846 97.014106 C 9.6846 92.720685 9.733781 88.437084 9.822307 84.143656 C 9.900997 80.321821 10.058378 76.509812 10.274776 72.687976 C 10.471501 69.308252 10.746916 65.938355 11.120694 62.578282 C 11.445291 59.6112 11.878086 56.663768 12.419081 53.735987 C 12.901057 51.161898 13.50107 48.617282 14.248626 46.102139 C 14.897819 43.891565 15.704392 41.720292 16.648674 39.607968 C 17.504428 37.711787 18.517564 35.894202 19.678243 34.165043 C 20.779904 32.543956 22.029109 31.030941 23.416022 29.645648 C 24.802935 28.260355 26.31772 27.012609 27.940703 25.922059 C 29.671886 24.762737 31.501429 23.750785 33.409665 22.896029 C 35.514626 21.952852 37.688439 21.147221 39.911433 20.498786 C 42.429517 19.761928 44.986944 19.152792 47.564048 18.681203 C 50.495253 18.131016 53.455967 17.698726 56.426518 17.384332 C 59.790522 17.010992 63.174195 16.735898 66.557868 16.539402 C 70.384173 16.323257 74.210479 16.175886 78.036784 16.087463 C 82.335234 15.99904 86.633683 15.949916 90.932125 15.959741 C 90.932125 15.959741 90.932125 15.959741 90.941963 15.959741 L 165.06803 15.959741 C 165.077876 15.959741 165.077876 15.959741 165.077876 15.959741 Z"/>
 </g>
 <g>
  <g opacity=".4" filter="url(#Z5lA8Y9PIZO0ouas5GJB45YTij4qIXIH)">
   <path d="M 200.5 94.805145 L 194.318305 94.998511 C 189.793716 94.967531 184.708487 94.948401 184.661893 94.964386 L 180.703789 106.66809 C 180.703789 106.66809 176.04829 94.800984 175.107849 95.026941 L 174.357175 94.981431 C 173.947314 94.954644 172.002031 94.935921 169.318553 94.935921 L 164.399358 94.935921 L 164.399358 115.846766 L 164.399358 137.991678 L 164.006959 138.293086 C 163.664215 138.539417 163.603151 138.619244 163.682804 138.696859 L 175.949516 147.5116 L 175.983641 138.935709 C 176.019513 131.050988 176.032005 130.405893 176.142883 130.763588 L 180.703801 142.774387 L 184.821141 130.291574 L 184.860944 141.637001 L 184.900747 152.982431 L 196.394033 161.126116 L 196.428156 129.501114 L 196.467965 99.087404 L 200.5 94.805145 Z M 98.214849 94.810968 L 96.372285 96.192891 L 94.524031 97.580504 L 94.524031 117.689494 L 94.518345 137.809719 L 113.342088 151.879187 L 123.635434 144.156336 L 123.618254 120.874038 L 123.595543 97.586054 L 121.781412 96.192755 L 119.955907 94.810831 L 109.088181 94.810831 L 98.214849 94.810968 Z M 133.138296 94.810968 L 131.312792 96.192891 L 129.49866 97.586191 L 129.475949 120.874175 L 129.458851 144.156336 L 139.752196 151.879187 L 158.57594 137.809719 L 158.570117 117.689357 L 158.570117 97.580367 L 156.721863 96.192755 L 154.879299 94.810831 L 144.005886 94.810831 L 133.138296 94.810968 Z M 55.500308 94.83368 L 59.674516 98.96239 L 59.674516 128.221651 C 59.674516 144.316882 59.703342 158.594755 59.731384 159.949044 L 59.731384 159.960399 C 59.767623 161.703188 59.807913 164.142094 59.867871 164.106172 C 60.068528 163.986442 89.761168 139.915881 89.79819 139.857096 C 89.820319 139.821224 89.626923 139.644367 89.371671 139.4647 L 88.905344 139.129169 L 88.905344 118.360497 L 88.905344 97.586135 L 87.142394 96.232645 L 85.379445 94.862095 L 70.633232 94.839384 C 61.001672 94.823952 55.452421 94.788953 55.500307 94.83356 L 55.500308 94.83368 Z M 112.807516 103.59714 C 113.316966 103.55361 113.407072 103.567499 114.126884 103.921295 L 114.883247 104.296634 L 114.900307 122.091042 C 114.903219 130.177469 114.860795 140.462901 114.809316 140.459832 L 103.270531 131.792947 L 103.270531 119.384062 L 103.253471 104.290945 L 103.970025 103.961104 L 104.669517 103.636949 L 108.468389 103.636949 C 110.556299 103.636949 112.508417 103.622682 112.807516 103.597146 L 112.807516 103.59714 Z M 140.286769 103.59714 C 140.585868 103.622763 142.537986 103.636943 144.625896 103.636943 L 148.424768 103.636943 L 149.124259 103.961104 L 149.840813 104.290945 L 149.823634 119.384062 L 149.823634 131.792947 L 138.284969 140.459832 C 138.23349 140.462898 138.191066 130.177469 138.193978 122.091042 L 138.211157 104.296634 L 138.96752 103.921295 C 139.687332 103.567499 139.777438 103.55361 140.286888 103.59714 L 140.286769 103.59714 Z M 78.623372 103.744997 L 79.32855 104.063468 L 80.016669 104.37056 L 80.016669 114.885696 L 80.016669 135.267658 L 68.37552 144.099465 C 68.232118 144.148789 68.219336 129.112262 68.250404 117.205964 L 68.278938 103.784805 L 73.994306 103.767626 L 78.623372 103.744997 Z"/>
  </g>
  <path fill="#ebdbb2" d="M 200.5 91.893436 L 194.318305 92.086791 C 189.793716 92.05581 184.708487 92.036683 184.661893 92.052671 L 180.703789 103.756376 C 180.703789 103.756376 176.04829 91.889269 175.107849 92.115227 L 174.357175 92.069731 C 173.947314 92.042943 172.002031 92.024236 169.318553 92.024236 L 164.399358 92.024236 L 164.399358 112.935081 L 164.399358 135.079992 L 164.006959 135.381401 C 163.664215 135.627731 163.603151 135.707559 163.682804 135.785173 L 175.949516 144.599915 L 175.983638 136.024024 C 176.019511 128.139302 176.031993 127.494207 176.142871 127.851902 L 180.703789 139.862701 L 184.821129 127.379888 L 184.860938 138.725315 L 184.900747 150.070745 L 196.394033 158.214431 L 196.428156 126.589406 L 196.467965 96.175695 L 200.5 91.893436 Z M 98.214849 91.899122 L 96.372285 93.281046 L 94.524031 94.668658 L 94.524031 114.777648 L 94.518345 134.898011 L 113.342088 148.967478 L 123.635434 141.244627 L 123.618374 117.96233 L 123.595625 94.674345 L 121.781493 93.281046 L 119.955989 91.899122 L 109.088262 91.899122 L 98.214849 91.899122 Z M 133.138296 91.899122 L 131.312792 93.281046 L 129.49866 94.674345 L 129.475911 117.96233 L 129.458851 141.244627 L 139.752196 148.967478 L 158.57594 134.898011 L 158.570254 114.777648 L 158.570254 94.668658 L 156.722 93.281046 L 154.879435 91.899122 L 144.006023 91.899122 L 133.138296 91.899122 Z M 55.500308 91.921872 L 59.674516 96.050582 L 59.674516 125.309843 C 59.674516 141.405074 59.703343 155.682947 59.731385 157.037236 L 59.731385 157.048609 C 59.767624 158.791398 59.807914 161.230303 59.867872 161.194381 C 60.068529 161.074652 89.761168 137.00409 89.798191 136.945306 C 89.82032 136.909434 89.626927 136.732576 89.371672 136.552909 L 88.905344 136.217379 L 88.905344 115.448707 L 88.905344 94.674345 L 87.142395 93.320855 L 85.379445 91.950304 L 70.633233 91.927558 C 61.001673 91.912126 55.452421 91.877119 55.500308 91.921872 Z M 112.807516 100.685431 C 113.316966 100.641901 113.407072 100.65579 114.126884 101.009586 L 114.883247 101.384926 L 114.900307 119.179334 C 114.903219 127.265761 114.860795 137.551192 114.809316 137.548123 L 103.270531 128.881238 L 103.270531 116.472353 L 103.253471 101.379236 L 103.970025 101.049395 L 104.669517 100.72524 L 108.468389 100.72524 C 110.556299 100.72524 112.508417 100.710967 112.807516 100.685431 Z M 140.286769 100.685431 C 140.585868 100.710967 142.537986 100.72524 144.625896 100.72524 L 148.424768 100.72524 L 149.124259 101.049395 L 149.840813 101.379236 L 149.823754 116.472353 L 149.823754 128.881238 L 138.284969 137.548123 C 138.23349 137.551189 138.191066 127.265761 138.193978 119.179334 L 138.211038 101.384926 L 138.967401 101.009586 C 139.687213 100.65579 139.777319 100.641901 140.286769 100.685431 Z M 78.623372 100.833291 L 79.32855 101.151762 L 80.016669 101.458854 L 80.016669 111.97399 L 80.016669 132.355952 L 68.37552 141.187759 C 68.232118 141.23708 68.219342 126.200556 68.25041 114.294258 L 68.278842 100.8731 L 73.99421 100.85604 L 78.623372 100.833291 Z"/>
 </g>
</svg>

<svg width="256" height="256" version="1.1" xmlns="http://www.w3.org/2000/svg">
  <defs>
    <linearGradient id="linearGradient31" x1=".5002" x2=".5002" y2="1" gradientTransform="matrix(244,0,0,228,5.986,12)" gradientUnits="userSpaceOnUse">
      <stop stop-color="#ebdbb2" stop-opacity=".2" offset="0"/>
      <stop stop-color="#ebdbb2" stop-opacity=".05" offset=".1"/>
      <stop stop-opacity="0" offset=".7036"/>
      <stop stop-opacity=".1" offset=".8975"/>
      <stop stop-opacity=".2" offset="1"/>
    </linearGradient>
    <linearGradient id="linearGradient6" x1="140" x2="140" y1="12" y2="240" gradientUnits="userSpaceOnUse">
      <stop stop-color="#3c3836" offset="0"/>
      <stop stop-color="#282828" offset="1"/>
    </linearGradient>
  </defs>
  <path d="m165 12c72 0 85 15 85 87v56c0 70-13 85-85 85h-74c-72 0-85-15-85-85v-56c0-72 13-87 85-87z" fill="url(#linearGradient6)" style="isolation:isolate"/>
  <path d="m91 12c-72 0-85 15-85 87v56c0 70 13 85 85 85h74c72 0 85-15 85-85v-56c0-72-13-87-85-87zm0 4h74c68 0 80 15 80 83v56c0 66-12 81-80 81h-74c-68 0-80-15-80-81v-56c0-68 12-83 80-83z" fill="url(#linearGradient31)" style="isolation:isolate"/>
  <g transform="matrix(1.36 0 0 1.36 -46.03 -43.21)" style="isolation:isolate">
    <path d="m200.5 94.81-6.182 0.1934c-4.525-0.03098-9.61-0.05011-9.656-0.03412l-3.958 11.7s-4.656-11.87-5.596-11.64l-0.7507-0.04551c-0.4099-0.02679-2.355-0.04551-5.039-0.04551h-4.919v43.06l-0.3924 0.3014c-0.3427 0.2463-0.4038 0.3262-0.3242 0.4038l12.27 8.815 0.0341-8.576c0.0359-7.885 0.0484-8.53 0.1592-8.172l4.561 12.01 4.117-12.48 0.0796 22.69 11.49 8.144 0.0341-31.63 0.0398-30.41zm-102.3 0.0058-1.843 1.382-1.848 1.388v20.11l-0.0057 20.12 18.82 14.07 10.29-7.723-0.0172-23.28-0.0227-23.29-1.814-1.393-1.826-1.382h-10.87zm34.92 0-1.826 1.382-1.814 1.393-0.0227 23.29-0.0171 23.28 10.29 7.723 18.82-14.07-6e-3 -20.12v-20.11l-1.848-1.388-1.843-1.382h-10.87zm-77.64 0.02271 4.174 4.129v29.26c0 16.1 0.02883 30.37 0.05687 31.73v0.0114c0.03624 1.743 0.07653 4.182 0.1365 4.146 0.2007-0.1197 29.89-24.19 29.93-24.25 0.02213-0.0359-0.1713-0.2127-0.4265-0.3924l-0.4663-0.3355v-41.54l-1.763-1.353-1.763-1.371-14.75-0.02271c-9.632-0.01543-15.18-0.05043-15.13-0.0058zm57.31 8.763c0.5094-0.0435 0.5996-0.0296 1.319 0.3242l0.7564 0.3753 0.0171 17.79c3e-3 8.086-0.0395 18.37-0.091 18.37l-11.54-8.667v-12.41l-0.0171-15.09 0.7166-0.3298 0.6995-0.3242h3.799c2.088 0 4.04-0.0143 4.339-0.0398zm27.48 0c0.2991 0.0256 2.251 0.0398 4.339 0.0398h3.799l0.6995 0.3242 0.7166 0.3298-0.0172 15.09v12.41l-11.54 8.667c-0.0515 3e-3 -0.0939-10.28-0.091-18.37l0.0172-17.79 0.7564-0.3753c0.7198-0.3538 0.8099-0.3677 1.319-0.3242zm-61.66 0.1479 0.7052 0.3185 0.6881 0.3071v30.9l-11.64 8.832c-0.1434 0.0493-0.1562-14.99-0.1251-26.89l0.02853-13.42 5.715-0.0172z" fill="#1d2021" style="isolation:isolate"/>
    <path d="m200.5 91.89-6.182 0.1934c-4.525-0.03098-9.61-0.05011-9.656-0.03412l-3.958 11.7s-4.656-11.87-5.596-11.64l-0.7507-0.0455c-0.4099-0.02679-2.355-0.0455-5.039-0.0455h-4.919v43.06l-0.3924 0.3014c-0.3427 0.2463-0.4038 0.3262-0.3242 0.4038l12.27 8.815 0.0341-8.576c0.0359-7.885 0.0483-8.53 0.1592-8.172l4.561 12.01 4.117-12.48 0.0398 11.35 0.0398 11.35 11.49 8.144 0.0341-31.63 0.0398-30.41zm-102.3 0.0057-1.843 1.382-1.848 1.388v20.11l-0.0057 20.12 18.82 14.07 10.29-7.723-0.0171-23.28-0.0228-23.29-1.814-1.393-1.826-1.382h-10.87zm34.92 0-1.826 1.382-1.814 1.393-0.0228 23.29-0.0171 23.28 10.29 7.723 18.82-14.07-6e-3 -20.12v-20.11l-1.848-1.388-1.843-1.382h-10.87zm-77.64 0.02275 4.174 4.129v29.26c0 16.1 0.02883 30.37 0.05687 31.73v0.0114c0.03624 1.743 0.07653 4.182 0.1365 4.146 0.2007-0.1197 29.89-24.19 29.93-24.25 0.02213-0.0359-0.1713-0.2127-0.4265-0.3924l-0.4663-0.3355v-41.54l-1.763-1.353-1.763-1.371-14.75-0.02275c-9.632-0.01543-15.18-0.05044-15.13-0.0057zm57.31 8.764c0.5094-0.0435 0.5996-0.0296 1.319 0.3242l0.7564 0.3753 0.0171 17.79c3e-3 8.086-0.0395 18.37-0.091 18.37l-11.54-8.667v-12.41l-0.0171-15.09 0.7166-0.3298 0.6995-0.3242h3.799c2.088 0 4.04-0.0143 4.339-0.0398zm27.48 0c0.2991 0.0255 2.251 0.0398 4.339 0.0398h3.799l0.6995 0.3242 0.7166 0.3298-0.0171 15.09v12.41l-11.54 8.667c-0.0515 3e-3 -0.0939-10.28-0.091-18.37l0.0171-17.79 0.7564-0.3753c0.7198-0.3538 0.8099-0.3677 1.319-0.3242zm-61.66 0.1479 0.7052 0.3185 0.6881 0.3071v30.9l-11.64 8.832c-0.1434 0.0493-0.1562-14.99-0.1251-26.89l0.02843-13.42 5.715-0.0171z" fill="#ebdbb2"/>
  </g>
</svg>
